icons/microphone-outline.svg

<svg xmlns="http://www.w3.org/2000/svg" width="24" height="24" viewBox="0 0 24 24">
  <path d="M19,11 C19.5128358,11 19.9355072,11.3860402 19.9932723,11.8833789 L20,12 L20,13 C20,17.0792885 16.9468043,20.445465 13.0009551,20.9379871 L13,22 C13,22.5522847 12.5522847,23 12,23 C11.4871642,23 11.0644928,22.6139598 11.0067277,22.1166211 L11,22 L11.0000487,20.9381123 C7.13435344,20.456091 4.12517261,17.2160132 4.00380682,13.2491793 L4,13 L4,12 C4,11.4477153 4.44771525,11 5,11 C5.51283584,11 5.93550716,11.3860402 5.99327227,11.8833789 L6,12 L6,13 C6,16.3137085 8.6862915,19 12,19 C15.2383969,19 17.8775718,16.4344251 17.9958615,13.2249383 L18,13 L18,12 C18,11.4477153 18.4477153,11 19,11 Z M12,1 C14.209139,1 16,2.790861 16,5 L16,5 L16,13 C16,15.209139 14.209139,17 12,17 C9.790861,17 8,15.209139 8,13 L8,13 L8,5 C8,2.790861 9.790861,1 12,1 Z M12,3 C10.8954305,3 10,3.8954305 10,5 L10,5 L10,13 C10,14.1045695 10.8954305,15 12,15 C13.1045695,15 14,14.1045695 14,13 L14,13 L14,5 C14,3.8954305 13.1045695,3 12,3 Z"/>
</svg>

<svg xmlns="http://www.w3.org/2000/svg" viewBox="0 0 24 24">
  <path d="M19 11a1 1 0 0 1 1 .88V13a8 8 0 0 1-7 7.94V22a1 1 0 0 1-2 .12v-1.18a8 8 0 0 1-7-7.7V12a1 1 0 0 1 2-.12V13a6 6 0 0 0 12 .22V12a1 1 0 0 1 1-1zM12 1a4 4 0 0 1 4 4v8a4 4 0 1 1-8 0V5a4 4 0 0 1 4-4zm0 2a2 2 0 0 0-2 2v8a2 2 0 1 0 4 0V5a2 2 0 0 0-2-2z"/>
</svg>
